X:3
T:Joy to the World (1)
M:2/4
K:Bb
L:1/4
Q:1/2=50
 b a3/4g/4 | f3/2e/2 | dc | B3/2f/2 | g3/2g/2 | a3/2a/2 | b3/2b/2 | .b/2.a/2 .g/2.f/2 | f3/4e/4 .d/2.b/2 |
 .b/2.a/2 .g/2.f/2 | f3/4e/4 .d/2.d/2 | .d/2.d/2 .d/2.d/4.e/4 | f3/2 .e/4.d/4 | .d/2.d/2 .d/2.d/4.e/4 | e3/2 d/4c/4 | B/2bg/2 |f3/4e/4 .d/2.e/2 | dc | B3/2z/2 |]
